X:9
T:Sunset
Z: id:dc-miscellaneous-5
M:C
L:1/8
K:D Mixolydian
ed|^cFF2 Bcdc|BGBd e2ed|cdeg d2Ad|dfed ^cded|!
^cFF2 Bcdc|BGBd e2ed|cdeg fde^c|dfe^c d2:|!
ag|fdfg a2gf|ecef g3a|fggf gfe^c|dfed ^cded|!
^cFF2 Bcdc|BGBd e2ed|cdeg fde^c|dfe^c d2ag|!
=fdfg a2gf|ece=f g3a|fggf gfe^c|dfed ^cded|!
^cFF2 Bcdc|BGBd e2ed|cdeg fde^c|dfe^c d2|]!

